X:1398
T:Betty Blue. JB.29
M:4/4
L:1/4
Q:150
S:James Biggins MS, Leeds, 1779.
R:Misc.
O:England
A:Yorkshire
Z:vmp.Nick Barber & Chris Partington
K:C
g>agf|edef|g>age|d2d2|g>agf|edef|g>age|c2c2:|!
|:d>edc|BABc|d>edB|G2G2|d>edc|BABc|d>edB|!
G3g|G3g|E3g|GgGg|G2G2|
g>agf|edef|!g>age|c2c2|
g>agf|edef|g>age|c2c2:|!


